icons/modern/leg-light.svg

<svg width="32" height="32" viewBox="0 0 32 32" fill="none" xmlns="http://www.w3.org/2000/svg">
<g filter="url(#filter0_i_20020_4485)">
<path d="M12.5922 6.42187L24.0507 11.488C25.6767 12.2052 26.4252 14.0954 25.7309 15.7313L21.7484 25.2812C21.4678 25.9424 21.8373 26.4459 22.264 26.7969C23.0911 27.4771 24.255 28.0679 25.036 28.1385C25.1196 28.1145 25.2079 28.1016 25.2992 28.1016C25.8234 28.1016 26.2484 28.5265 26.2484 29.0508C26.2484 29.5711 25.8297 29.9936 25.3109 29.9999L25.2992 30L19.02 30C18.0044 30 17.2824 29.0119 17.5909 28.0443L18.0588 26.577C18.1738 26.2164 18.2196 25.8373 18.1936 25.4597L17.9594 21.6406C17.9594 19.6328 18.5154 17.6442 19.8656 16.8437L20.1747 16.6028C20.2719 16.5117 20.2954 16.4779 20.2954 16.3909C20.2954 16.2474 20.1733 16.1343 20.0303 16.1453L19.1395 16.2133C18.2783 16.2792 17.4122 16.2331 16.5628 16.0764L9.96715 14.8594C6.92029 14.3125 5.00562 11.4274 6.02973 8.74999C6.96072 6.31601 9.85785 5.28125 12.5922 6.42187Z" fill="url(#paint0_linear_20020_4485)"/>
<path d="M12.5922 6.42187L24.0507 11.488C25.6767 12.2052 26.4252 14.0954 25.7309 15.7313L21.7484 25.2812C21.4678 25.9424 21.8373 26.4459 22.264 26.7969C23.0911 27.4771 24.255 28.0679 25.036 28.1385C25.1196 28.1145 25.2079 28.1016 25.2992 28.1016C25.8234 28.1016 26.2484 28.5265 26.2484 29.0508C26.2484 29.5711 25.8297 29.9936 25.3109 29.9999L25.2992 30L19.02 30C18.0044 30 17.2824 29.0119 17.5909 28.0443L18.0588 26.577C18.1738 26.2164 18.2196 25.8373 18.1936 25.4597L17.9594 21.6406C17.9594 19.6328 18.5154 17.6442 19.8656 16.8437L20.1747 16.6028C20.2719 16.5117 20.2954 16.4779 20.2954 16.3909C20.2954 16.2474 20.1733 16.1343 20.0303 16.1453L19.1395 16.2133C18.2783 16.2792 17.4122 16.2331 16.5628 16.0764L9.96715 14.8594C6.92029 14.3125 5.00562 11.4274 6.02973 8.74999C6.96072 6.31601 9.85785 5.28125 12.5922 6.42187Z" fill="url(#paint1_radial_20020_4485)"/>
</g>
<path d="M12.5922 6.42187L24.0507 11.488C25.6767 12.2052 26.4252 14.0954 25.7309 15.7313L21.7484 25.2812C21.4678 25.9424 21.8373 26.4459 22.264 26.7969C23.0911 27.4771 24.255 28.0679 25.036 28.1385C25.1196 28.1145 25.2079 28.1016 25.2992 28.1016C25.8234 28.1016 26.2484 28.5265 26.2484 29.0508C26.2484 29.5711 25.8297 29.9936 25.3109 29.9999L25.2992 30L19.02 30C18.0044 30 17.2824 29.0119 17.5909 28.0443L18.0588 26.577C18.1738 26.2164 18.2196 25.8373 18.1936 25.4597L17.9594 21.6406C17.9594 19.6328 18.5154 17.6442 19.8656 16.8437L20.1747 16.6028C20.2719 16.5117 20.2954 16.4779 20.2954 16.3909C20.2954 16.2474 20.1733 16.1343 20.0303 16.1453L19.1395 16.2133C18.2783 16.2792 17.4122 16.2331 16.5628 16.0764L9.96715 14.8594C6.92029 14.3125 5.00562 11.4274 6.02973 8.74999C6.96072 6.31601 9.85785 5.28125 12.5922 6.42187Z" fill="url(#paint2_linear_20020_4485)"/>
<path d="M12.5922 6.42187L24.0507 11.488C25.6767 12.2052 26.4252 14.0954 25.7309 15.7313L21.7484 25.2812C21.4678 25.9424 21.8373 26.4459 22.264 26.7969C23.0911 27.4771 24.255 28.0679 25.036 28.1385C25.1196 28.1145 25.2079 28.1016 25.2992 28.1016C25.8234 28.1016 26.2484 28.5265 26.2484 29.0508C26.2484 29.5711 25.8297 29.9936 25.3109 29.9999L25.2992 30L19.02 30C18.0044 30 17.2824 29.0119 17.5909 28.0443L18.0588 26.577C18.1738 26.2164 18.2196 25.8373 18.1936 25.4597L17.9594 21.6406C17.9594 19.6328 18.5154 17.6442 19.8656 16.8437L20.1747 16.6028C20.2719 16.5117 20.2954 16.4779 20.2954 16.3909C20.2954 16.2474 20.1733 16.1343 20.0303 16.1453L19.1395 16.2133C18.2783 16.2792 17.4122 16.2331 16.5628 16.0764L9.96715 14.8594C6.92029 14.3125 5.00562 11.4274 6.02973 8.74999C6.96072 6.31601 9.85785 5.28125 12.5922 6.42187Z" fill="url(#paint3_radial_20020_4485)"/>
<path d="M12.5922 6.42187L24.0507 11.488C25.6767 12.2052 26.4252 14.0954 25.7309 15.7313L21.7484 25.2812C21.4678 25.9424 21.8373 26.4459 22.264 26.7969C23.0911 27.4771 24.255 28.0679 25.036 28.1385C25.1196 28.1145 25.2079 28.1016 25.2992 28.1016C25.8234 28.1016 26.2484 28.5265 26.2484 29.0508C26.2484 29.5711 25.8297 29.9936 25.3109 29.9999L25.2992 30L19.02 30C18.0044 30 17.2824 29.0119 17.5909 28.0443L18.0588 26.577C18.1738 26.2164 18.2196 25.8373 18.1936 25.4597L17.9594 21.6406C17.9594 19.6328 18.5154 17.6442 19.8656 16.8437L20.1747 16.6028C20.2719 16.5117 20.2954 16.4779 20.2954 16.3909C20.2954 16.2474 20.1733 16.1343 20.0303 16.1453L19.1395 16.2133C18.2783 16.2792 17.4122 16.2331 16.5628 16.0764L9.96715 14.8594C6.92029 14.3125 5.00562 11.4274 6.02973 8.74999C6.96072 6.31601 9.85785 5.28125 12.5922 6.42187Z" fill="url(#paint4_radial_20020_4485)"/>
<path d="M12.5922 6.42187L24.0507 11.488C25.6767 12.2052 26.4252 14.0954 25.7309 15.7313L21.7484 25.2812C21.4678 25.9424 21.8373 26.4459 22.264 26.7969C23.0911 27.4771 24.255 28.0679 25.036 28.1385C25.1196 28.1145 25.2079 28.1016 25.2992 28.1016C25.8234 28.1016 26.2484 28.5265 26.2484 29.0508C26.2484 29.5711 25.8297 29.9936 25.3109 29.9999L25.2992 30L19.02 30C18.0044 30 17.2824 29.0119 17.5909 28.0443L18.0588 26.577C18.1738 26.2164 18.2196 25.8373 18.1936 25.4597L17.9594 21.6406C17.9594 19.6328 18.5154 17.6442 19.8656 16.8437L20.1747 16.6028C20.2719 16.5117 20.2954 16.4779 20.2954 16.3909C20.2954 16.2474 20.1733 16.1343 20.0303 16.1453L19.1395 16.2133C18.2783 16.2792 17.4122 16.2331 16.5628 16.0764L9.96715 14.8594C6.92029 14.3125 5.00562 11.4274 6.02973 8.74999C6.96072 6.31601 9.85785 5.28125 12.5922 6.42187Z" fill="url(#paint5_radial_20020_4485)"/>
<path d="M12.5922 6.42187L24.0507 11.488C25.6767 12.2052 26.4252 14.0954 25.7309 15.7313L21.7484 25.2812C21.4678 25.9424 21.8373 26.4459 22.264 26.7969C23.0911 27.4771 24.255 28.0679 25.036 28.1385C25.1196 28.1145 25.2079 28.1016 25.2992 28.1016C25.8234 28.1016 26.2484 28.5265 26.2484 29.0508C26.2484 29.5711 25.8297 29.9936 25.3109 29.9999L25.2992 30L19.02 30C18.0044 30 17.2824 29.0119 17.5909 28.0443L18.0588 26.577C18.1738 26.2164 18.2196 25.8373 18.1936 25.4597L17.9594 21.6406C17.9594 19.6328 18.5154 17.6442 19.8656 16.8437L20.1747 16.6028C20.2719 16.5117 20.2954 16.4779 20.2954 16.3909C20.2954 16.2474 20.1733 16.1343 20.0303 16.1453L19.1395 16.2133C18.2783 16.2792 17.4122 16.2331 16.5628 16.0764L9.96715 14.8594C6.92029 14.3125 5.00562 11.4274 6.02973 8.74999C6.96072 6.31601 9.85785 5.28125 12.5922 6.42187Z" fill="url(#paint6_radial_20020_4485)"/>
<g filter="url(#filter1_f_20020_4485)">
<path d="M19.8747 25.5594L21.322 25.8659C21.322 26.3154 21.5349 26.5385 21.6711 26.7003L20.7772 27.9433L20.4196 27.16L19.9994 27.3801C19.8368 27.4653 19.636 27.4017 19.5521 27.2385C19.4674 27.0739 19.5345 26.8718 19.7007 26.7904L20.1982 26.547L19.8747 25.5594Z" fill="url(#paint7_linear_20020_4485)"/>
</g>
<g filter="url(#filter2_f_20020_4485)">
<path d="M21.5971 28.1931C22.0002 28.4842 23.3484 29.0665 25.5163 29.0665" stroke="url(#paint8_linear_20020_4485)" stroke-width="0.5" stroke-linecap="round"/>
</g>
<g filter="url(#filter3_f_20020_4485)">
<path d="M11.3848 8.73138L23.4336 13.5688" stroke="url(#paint9_linear_20020_4485)" stroke-width="2" stroke-linecap="round"/>
</g>
<g filter="url(#filter4_f_20020_4485)">
<path d="M24.0609 14.0312L21.1859 21.4688" stroke="url(#paint10_linear_20020_4485)" stroke-width="2" stroke-linecap="round"/>
</g>
<g filter="url(#filter5_f_20020_4485)">
<path d="M6.59756 9.27972C6.39683 10.1373 6.41687 12.1208 8.10293 13.1937" stroke="url(#paint11_linear_20020_4485)" stroke-width="0.5" stroke-linecap="round"/>
</g>
<defs>
<filter id="filter0_i_20020_4485" x="5.75165" y="4.95825" width="21.9968" height="25.0417" filterUnits="userSpaceOnUse" color-interpolation-filters="sRGB">
<feFlood flood-opacity="0" result="BackgroundImageFix"/>
<feBlend mode="normal" in="SourceGraphic" in2="BackgroundImageFix" result="shape"/>
<feColorMatrix in="SourceAlpha" type="matrix" values="0 0 0 0 0 0 0 0 0 0 0 0 0 0 0 0 0 0 127 0" result="hardAlpha"/>
<feOffset dx="1.5" dy="-1"/>
<feGaussianBlur stdDeviation="1.5"/>
<feComposite in2="hardAlpha" operator="arithmetic" k2="-1" k3="1"/>
<feColorMatrix type="matrix" values="0 0 0 0 0.87451 0 0 0 0 0.670588 0 0 0 0 0.580392 0 0 0 1 0"/>
<feBlend mode="normal" in2="shape" result="effect1_innerShadow_20020_4485"/>
</filter>
<filter id="filter1_f_20020_4485" x="19.0154" y="25.0594" width="3.1557" height="3.38391" filterUnits="userSpaceOnUse" color-interpolation-filters="sRGB">
<feFlood flood-opacity="0" result="BackgroundImageFix"/>
<feBlend mode="normal" in="SourceGraphic" in2="BackgroundImageFix" result="shape"/>
<feGaussianBlur stdDeviation="0.25" result="effect1_foregroundBlur_20020_4485"/>
</filter>
<filter id="filter2_f_20020_4485" x="20.8471" y="27.4431" width="5.41919" height="2.37341" filterUnits="userSpaceOnUse" color-interpolation-filters="sRGB">
<feFlood flood-opacity="0" result="BackgroundImageFix"/>
<feBlend mode="normal" in="SourceGraphic" in2="BackgroundImageFix" result="shape"/>
<feGaussianBlur stdDeviation="0.25" result="effect1_foregroundBlur_20020_4485"/>
</filter>
<filter id="filter3_f_20020_4485" x="9.38452" y="6.73114" width="16.0493" height="8.83795" filterUnits="userSpaceOnUse" color-interpolation-filters="sRGB">
<feFlood flood-opacity="0" result="BackgroundImageFix"/>
<feBlend mode="normal" in="SourceGraphic" in2="BackgroundImageFix" result="shape"/>
<feGaussianBlur stdDeviation="0.5" result="effect1_foregroundBlur_20020_4485"/>
</filter>
<filter id="filter4_f_20020_4485" x="19.1857" y="12.031" width="6.87549" height="11.438" filterUnits="userSpaceOnUse" color-interpolation-filters="sRGB">
<feFlood flood-opacity="0" result="BackgroundImageFix"/>
<feBlend mode="normal" in="SourceGraphic" in2="BackgroundImageFix" result="shape"/>
<feGaussianBlur stdDeviation="0.5" result="effect1_foregroundBlur_20020_4485"/>
</filter>
<filter id="filter5_f_20020_4485" x="5.76099" y="8.52966" width="3.09198" height="5.41412" filterUnits="userSpaceOnUse" color-interpolation-filters="sRGB">
<feFlood flood-opacity="0" result="BackgroundImageFix"/>
<feBlend mode="normal" in="SourceGraphic" in2="BackgroundImageFix" result="shape"/>
<feGaussianBlur stdDeviation="0.25" result="effect1_foregroundBlur_20020_4485"/>
</filter>
<linearGradient id="paint0_linear_20020_4485" x1="15.5922" y1="7.3125" x2="21.3401" y2="32.2177" gradientUnits="userSpaceOnUse">
<stop stop-color="#FFD9BA"/>
<stop offset="1" stop-color="#FFCFBA"/>
</linearGradient>
<radialGradient id="paint1_radial_20020_4485" cx="0" cy="0" r="1" gradientUnits="userSpaceOnUse" gradientTransform="translate(22.6769 26.4219) rotate(138.945) scale(1.92701 3.7229)">
<stop stop-color="#FFD9BC"/>
<stop offset="1" stop-color="#FFD9BC" stop-opacity="0"/>
</radialGradient>
<linearGradient id="paint2_linear_20020_4485" x1="20.8422" y1="30.5" x2="20.8422" y2="28.7812" gradientUnits="userSpaceOnUse">
<stop stop-color="#C3849B"/>
<stop offset="1" stop-color="#C3849B" stop-opacity="0"/>
</linearGradient>
<radialGradient id="paint3_radial_20020_4485" cx="0" cy="0" r="1" gradientUnits="userSpaceOnUse" gradientTransform="translate(19.2394 16.6562) rotate(-20.4125) scale(2.35197 1.04112)">
<stop stop-color="#CE887B"/>
<stop offset="0.847395" stop-color="#CE887B" stop-opacity="0"/>
</radialGradient>
<radialGradient id="paint4_radial_20020_4485" cx="0" cy="0" r="1" gradientUnits="userSpaceOnUse" gradientTransform="translate(19.2394 16.6562) rotate(-20.4125) scale(2.35197 0.344999)">
<stop stop-color="#ECB59E"/>
<stop offset="0.847395" stop-color="#ECB59E" stop-opacity="0"/>
</radialGradient>
<radialGradient id="paint5_radial_20020_4485" cx="0" cy="0" r="1" gradientUnits="userSpaceOnUse" gradientTransform="translate(11.9366 15.9352) rotate(-78.9765) scale(5.13518 12.2238)">
<stop stop-color="#BE7F8F"/>
<stop offset="1" stop-color="#BE7F8F" stop-opacity="0"/>
</radialGradient>
<radialGradient id="paint6_radial_20020_4485" cx="0" cy="0" r="1" gradientUnits="userSpaceOnUse" gradientTransform="translate(17.4911 24.2789) rotate(-71.6216) scale(8.76789 3.22846)">
<stop offset="0.09375" stop-color="#E2A993"/>
<stop offset="1" stop-color="#E2A993" stop-opacity="0"/>
</radialGradient>
<linearGradient id="paint7_linear_20020_4485" x1="19.9399" y1="27.342" x2="22.4257" y2="26.2446" gradientUnits="userSpaceOnUse">
<stop stop-color="#FFDFC9"/>
<stop offset="1" stop-color="#FFDFC9" stop-opacity="0"/>
</linearGradient>
<linearGradient id="paint8_linear_20020_4485" x1="25.3819" y1="29.0665" x2="20.3654" y2="29.0665" gradientUnits="userSpaceOnUse">
<stop stop-color="#F3C0A4"/>
<stop offset="1" stop-color="#F3C0A4" stop-opacity="0"/>
</linearGradient>
<linearGradient id="paint9_linear_20020_4485" x1="22.9636" y1="13.5688" x2="8.36175" y2="8.21833" gradientUnits="userSpaceOnUse">
<stop stop-color="#FFE6C9"/>
<stop offset="1" stop-color="#FFCEAA" stop-opacity="0"/>
</linearGradient>
<linearGradient id="paint10_linear_20020_4485" x1="23.9488" y1="21.4687" x2="20.0095" y2="21.2447" gradientUnits="userSpaceOnUse">
<stop stop-color="#FFE6C9"/>
<stop offset="1" stop-color="#FFCEAA" stop-opacity="0"/>
</linearGradient>
<linearGradient id="paint11_linear_20020_4485" x1="6.10487" y1="11.6062" x2="8.31119" y2="10.7179" gradientUnits="userSpaceOnUse">
<stop stop-color="#E9AF99"/>
<stop offset="1" stop-color="#E9AF99" stop-opacity="0"/>
</linearGradient>
</defs>
</svg>

<svg width="32" height="32" fill="none" xmlns="http://www.w3.org/2000/svg"><g filter="url(#a)"><path d="m12.592 6.422 11.459 5.066a3.25 3.25 0 0 1 1.68 4.243l-3.983 9.55c-.28.661.09 1.165.516 1.516.827.68 1.991 1.27 2.772 1.341A.95.95 0 1 1 25.311 30l-.012.001H19.02a1.5 1.5 0 0 1-1.43-1.956l.469-1.467a3 3 0 0 0 .135-1.117l-.235-3.82c0-2.007.556-3.996 1.907-4.796l.309-.241c.097-.091.12-.125.12-.212a.246.246 0 0 0-.265-.246l-.89.068a9.998 9.998 0 0 1-2.577-.137L9.967 14.86C6.92 14.313 5.006 11.427 6.03 8.75c.93-2.434 3.828-3.469 6.562-2.328Z" fill="url(#b)"/><path d="m12.592 6.422 11.459 5.066a3.25 3.25 0 0 1 1.68 4.243l-3.983 9.55c-.28.661.09 1.165.516 1.516.827.68 1.991 1.27 2.772 1.341A.95.95 0 1 1 25.311 30l-.012.001H19.02a1.5 1.5 0 0 1-1.43-1.956l.469-1.467a3 3 0 0 0 .135-1.117l-.235-3.82c0-2.007.556-3.996 1.907-4.796l.309-.241c.097-.091.12-.125.12-.212a.246.246 0 0 0-.265-.246l-.89.068a9.998 9.998 0 0 1-2.577-.137L9.967 14.86C6.92 14.313 5.006 11.427 6.03 8.75c.93-2.434 3.828-3.469 6.562-2.328Z" fill="url(#c)"/></g><path d="m12.592 6.422 11.459 5.066a3.25 3.25 0 0 1 1.68 4.243l-3.983 9.55c-.28.661.09 1.165.516 1.516.827.68 1.991 1.27 2.772 1.341A.95.95 0 1 1 25.311 30l-.012.001H19.02a1.5 1.5 0 0 1-1.43-1.956l.469-1.467a3 3 0 0 0 .135-1.117l-.235-3.82c0-2.007.556-3.996 1.907-4.796l.309-.241c.097-.091.12-.125.12-.212a.246.246 0 0 0-.265-.246l-.89.068a9.998 9.998 0 0 1-2.577-.137L9.967 14.86C6.92 14.313 5.006 11.427 6.03 8.75c.93-2.434 3.828-3.469 6.562-2.328Z" fill="url(#d)"/><path d="m12.592 6.422 11.459 5.066a3.25 3.25 0 0 1 1.68 4.243l-3.983 9.55c-.28.661.09 1.165.516 1.516.827.68 1.991 1.27 2.772 1.341A.95.95 0 1 1 25.311 30l-.012.001H19.02a1.5 1.5 0 0 1-1.43-1.956l.469-1.467a3 3 0 0 0 .135-1.117l-.235-3.82c0-2.007.556-3.996 1.907-4.796l.309-.241c.097-.091.12-.125.12-.212a.246.246 0 0 0-.265-.246l-.89.068a9.998 9.998 0 0 1-2.577-.137L9.967 14.86C6.92 14.313 5.006 11.427 6.03 8.75c.93-2.434 3.828-3.469 6.562-2.328Z" fill="url(#e)"/><path d="m12.592 6.422 11.459 5.066a3.25 3.25 0 0 1 1.68 4.243l-3.983 9.55c-.28.661.09 1.165.516 1.516.827.68 1.991 1.27 2.772 1.341A.95.95 0 1 1 25.311 30l-.012.001H19.02a1.5 1.5 0 0 1-1.43-1.956l.469-1.467a3 3 0 0 0 .135-1.117l-.235-3.82c0-2.007.556-3.996 1.907-4.796l.309-.241c.097-.091.12-.125.12-.212a.246.246 0 0 0-.265-.246l-.89.068a9.998 9.998 0 0 1-2.577-.137L9.967 14.86C6.92 14.313 5.006 11.427 6.03 8.75c.93-2.434 3.828-3.469 6.562-2.328Z" fill="url(#f)"/><path d="m12.592 6.422 11.459 5.066a3.25 3.25 0 0 1 1.68 4.243l-3.983 9.55c-.28.661.09 1.165.516 1.516.827.68 1.991 1.27 2.772 1.341A.95.95 0 1 1 25.311 30l-.012.001H19.02a1.5 1.5 0 0 1-1.43-1.956l.469-1.467a3 3 0 0 0 .135-1.117l-.235-3.82c0-2.007.556-3.996 1.907-4.796l.309-.241c.097-.091.12-.125.12-.212a.246.246 0 0 0-.265-.246l-.89.068a9.998 9.998 0 0 1-2.577-.137L9.967 14.86C6.92 14.313 5.006 11.427 6.03 8.75c.93-2.434 3.828-3.469 6.562-2.328Z" fill="url(#g)"/><path d="m12.592 6.422 11.459 5.066a3.25 3.25 0 0 1 1.68 4.243l-3.983 9.55c-.28.661.09 1.165.516 1.516.827.68 1.991 1.27 2.772 1.341A.95.95 0 1 1 25.311 30l-.012.001H19.02a1.5 1.5 0 0 1-1.43-1.956l.469-1.467a3 3 0 0 0 .135-1.117l-.235-3.82c0-2.007.556-3.996 1.907-4.796l.309-.241c.097-.091.12-.125.12-.212a.246.246 0 0 0-.265-.246l-.89.068a9.998 9.998 0 0 1-2.577-.137L9.967 14.86C6.92 14.313 5.006 11.427 6.03 8.75c.93-2.434 3.828-3.469 6.562-2.328Z" fill="url(#h)"/><g filter="url(#i)"><path d="m19.875 25.56 1.447.306c0 .45.213.672.35.834l-.895 1.243-.357-.783-.42.22a.33.33 0 1 1-.3-.59l.498-.243-.323-.988Z" fill="url(#j)"/></g><g filter="url(#k)"><path d="M21.597 28.193c.403.291 1.751.873 3.92.873" stroke="url(#l)" stroke-width=".5" stroke-linecap="round"/></g><g filter="url(#m)"><path d="m11.385 8.731 12.049 4.838" stroke="url(#n)" stroke-width="2" stroke-linecap="round"/></g><g filter="url(#o)"><path d="m24.06 14.031-2.874 7.438" stroke="url(#p)" stroke-width="2" stroke-linecap="round"/></g><g filter="url(#q)"><path d="M6.598 9.28c-.201.857-.181 2.84 1.505 3.914" stroke="url(#r)" stroke-width=".5" stroke-linecap="round"/></g><defs><linearGradient id="b" x1="15.592" y1="7.313" x2="21.34" y2="32.218" gradientUnits="userSpaceOnUse"><stop stop-color="#FFD9BA"/><stop offset="1" stop-color="#FFCFBA"/></linearGradient><linearGradient id="d" x1="20.842" y1="30.5" x2="20.842" y2="28.781" gradientUnits="userSpaceOnUse"><stop stop-color="#C3849B"/><stop offset="1" stop-color="#C3849B" stop-opacity="0"/></linearGradient><linearGradient id="j" x1="19.94" y1="27.342" x2="22.426" y2="26.245" gradientUnits="userSpaceOnUse"><stop stop-color="#FFDFC9"/><stop offset="1" stop-color="#FFDFC9" stop-opacity="0"/></linearGradient><linearGradient id="l" x1="25.382" y1="29.067" x2="20.365" y2="29.067" gradientUnits="userSpaceOnUse"><stop stop-color="#F3C0A4"/><stop offset="1" stop-color="#F3C0A4" stop-opacity="0"/></linearGradient><linearGradient id="n" x1="22.964" y1="13.569" x2="8.362" y2="8.218" gradientUnits="userSpaceOnUse"><stop stop-color="#FFE6C9"/><stop offset="1" stop-color="#FFCEAA" stop-opacity="0"/></linearGradient><linearGradient id="p" x1="23.949" y1="21.469" x2="20.009" y2="21.245" gradientUnits="userSpaceOnUse"><stop stop-color="#FFE6C9"/><stop offset="1" stop-color="#FFCEAA" stop-opacity="0"/></linearGradient><linearGradient id="r" x1="6.105" y1="11.606" x2="8.311" y2="10.718" gradientUnits="userSpaceOnUse"><stop stop-color="#E9AF99"/><stop offset="1" stop-color="#E9AF99" stop-opacity="0"/></linearGradient><filter id="a" x="5.752" y="4.958" width="21.997" height="25.042" filterUnits="userSpaceOnUse" color-interpolation-filters="sRGB"><feFlood flood-opacity="0" result="BackgroundImageFix"/><feBlend in="SourceGraphic" in2="BackgroundImageFix" result="shape"/><feColorMatrix in="SourceAlpha" values="0 0 0 0 0 0 0 0 0 0 0 0 0 0 0 0 0 0 127 0" result="hardAlpha"/><feOffset dx="1.5" dy="-1"/><feGaussianBlur stdDeviation="1.5"/><feComposite in2="hardAlpha" operator="arithmetic" k2="-1" k3="1"/><feColorMatrix values="0 0 0 0 0.87451 0 0 0 0 0.670588 0 0 0 0 0.580392 0 0 0 1 0"/><feBlend in2="shape" result="effect1_innerShadow_20020_4485"/></filter><filter id="i" x="19.015" y="25.059" width="3.156" height="3.384" filterUnits="userSpaceOnUse" color-interpolation-filters="sRGB"><feFlood flood-opacity="0" result="BackgroundImageFix"/><feBlend in="SourceGraphic" in2="BackgroundImageFix" result="shape"/><feGaussianBlur stdDeviation=".25" result="effect1_foregroundBlur_20020_4485"/></filter><filter id="k" x="20.847" y="27.443" width="5.419" height="2.373" filterUnits="userSpaceOnUse" color-interpolation-filters="sRGB"><feFlood flood-opacity="0" result="BackgroundImageFix"/><feBlend in="SourceGraphic" in2="BackgroundImageFix" result="shape"/><feGaussianBlur stdDeviation=".25" result="effect1_foregroundBlur_20020_4485"/></filter><filter id="m" x="9.385" y="6.731" width="16.049" height="8.838" filterUnits="userSpaceOnUse" color-interpolation-filters="sRGB"><feFlood flood-opacity="0" result="BackgroundImageFix"/><feBlend in="SourceGraphic" in2="BackgroundImageFix" result="shape"/><feGaussianBlur stdDeviation=".5" result="effect1_foregroundBlur_20020_4485"/></filter><filter id="o" x="19.186" y="12.031" width="6.875" height="11.438" filterUnits="userSpaceOnUse" color-interpolation-filters="sRGB"><feFlood flood-opacity="0" result="BackgroundImageFix"/><feBlend in="SourceGraphic" in2="BackgroundImageFix" result="shape"/><feGaussianBlur stdDeviation=".5" result="effect1_foregroundBlur_20020_4485"/></filter><filter id="q" x="5.761" y="8.53" width="3.092" height="5.414" filterUnits="userSpaceOnUse" color-interpolation-filters="sRGB"><feFlood flood-opacity="0" result="BackgroundImageFix"/><feBlend in="SourceGraphic" in2="BackgroundImageFix" result="shape"/><feGaussianBlur stdDeviation=".25" result="effect1_foregroundBlur_20020_4485"/></filter><radialGradient id="c" cx="0" cy="0" r="1" gradientUnits="userSpaceOnUse" gradientTransform="rotate(138.945 6.392 17.456) scale(1.92701 3.7229)"><stop stop-color="#FFD9BC"/><stop offset="1" stop-color="#FFD9BC" stop-opacity="0"/></radialGradient><radialGradient id="e" cx="0" cy="0" r="1" gradientUnits="userSpaceOnUse" gradientTransform="matrix(2.20428 -.82031 .36312 .97574 19.24 16.656)"><stop stop-color="#CE887B"/><stop offset=".847" stop-color="#CE887B" stop-opacity="0"/></radialGradient><radialGradient id="f" cx="0" cy="0" r="1" gradientUnits="userSpaceOnUse" gradientTransform="matrix(2.20428 -.82031 .12033 .32334 19.24 16.656)"><stop stop-color="#ECB59E"/><stop offset=".847" stop-color="#ECB59E" stop-opacity="0"/></radialGradient><radialGradient id="g" cx="0" cy="0" r="1" gradientUnits="userSpaceOnUse" gradientTransform="rotate(-78.977 15.638 .724) scale(5.13518 12.2238)"><stop stop-color="#BE7F8F"/><stop offset="1" stop-color="#BE7F8F" stop-opacity="0"/></radialGradient><radialGradient id="h" cx="0" cy="0" r="1" gradientUnits="userSpaceOnUse" gradientTransform="matrix(2.76444 -8.32068 3.0638 1.0179 17.491 24.279)"><stop offset=".094" stop-color="#E2A993"/><stop offset="1" stop-color="#E2A993" stop-opacity="0"/></radialGradient></defs></svg>
